X:1
T:Three Nights and a Sunday
M:2/4
L:1/8
K:C
 G2 G G/2G/2| AG D3/2 E/2| C4-| C2 z2| c2 c c/2c/2| dc B/2 A3/2| G4-|\
 G2 z G| ec c c/2c/2| ec cc| AG Gc| ED E2| G2 G G/2G/2| AG D/2 E3/2|\
 C4-| C2 z2|



